X: 09059
T: KANALY'S HORNPIPE
C: Bob McQuillen 23 Mar 92
B: Bob's Note Book 9 #59
%R: reel
Z: 2018 John Chambers <jc:trillian.mit.edu>
M: C
L: 1/8
K: G
Bc \
| d2dc Bded | BdBG D2DC | B,DGB cBAG | F2A2 A2Bc |
| dedc Bded | BdBG D2DC | B,DED GBAc | B2G2 G2 :|
|: DC \
| B,DED G2Bd  | edBd  g2Bd | cBAc BDGB | cBAG FEDC |
| B,DED GDB,D | EDB,D G2Bd | cBAB cdef | g2G2 G2 :|
%%begintext align
%% Paul Karaly
%% (pro. Ka-NAY-ly) lives over in Kingston, NH,
%% near the coast. Paul is 80+ and loves to dance,
%% and he also likes to make jelly. So what does
%% he do? He brings delicious home-made jellies
%% to the dances to give to his friends! I'm sure glad
%% he does!
%%endtext

%%sep 1 1 500

%%sep 1 1 500

